packages/foundations/assets/icons/functional/images/transportation/ship_32_inverted.svg

<svg width="32" height="32" viewBox="0 0 32 32" fill="none" xmlns="http://www.w3.org/2000/svg">
<g clip-path="url(#clip0_2214_7257)">
<path fill-rule="evenodd" clip-rule="evenodd" d="M26.4096 23.9638C26.8484 24.4201 27.1469 24.7131 27.305 24.8428C27.8656 25.3027 28.5261 25.65 28.9978 25.65C29.4695 25.65 29.85 26.0305 29.85 26.5C29.85 26.9333 29.4998 27.35 28.9978 27.35C27.9559 27.35 26.8733 26.8123 25.75 25.7369C24.5983 26.8123 23.5157 27.35 22.5022 27.35C21.4888 27.35 20.4047 26.812 19.25 25.7359C18.1062 26.8134 17.0215 27.3515 15.9959 27.35C14.9704 27.3485 13.8884 26.8108 12.75 25.7369C11.6144 26.8124 10.5313 27.3501 9.50062 27.35C8.46995 27.3498 7.38642 26.8118 6.25002 25.7359C5.10521 26.812 4.02187 27.35 3.00002 27.35C2.53058 27.35 2.15002 26.9694 2.15002 26.5C2.15002 26.0666 2.50283 25.65 3.00002 25.65C3.46039 25.65 4.0726 25.3548 4.69602 24.843C4.85398 24.7133 5.15194 24.4205 5.58992 23.9645C5.93009 23.5451 6.56996 23.5451 6.91013 23.9645C7.3481 24.4205 7.64607 24.7133 7.80403 24.843C8.36511 25.3036 9.00002 25.65 9.50002 25.65C10 25.6499 10.6339 25.3034 11.1952 24.8428C11.3533 24.7131 11.6517 24.4202 12.0903 23.9639C12.4305 23.5453 13.0695 23.5453 13.4096 23.9639C13.8484 24.4201 14.1468 24.7131 14.305 24.8428C14.8658 25.3029 15.4963 25.651 15.9984 25.65C16.5005 25.6489 17.0722 25.3537 17.695 24.8428C17.8531 24.7131 18.1516 24.4201 18.5904 23.9638C18.9062 23.5754 19.4793 23.5475 19.832 23.8803C20.3229 24.3921 20.6474 24.7129 20.8056 24.8427C21.3637 25.3004 22.0066 25.6509 22.5022 25.65C22.9978 25.649 23.5722 25.3538 24.195 24.8428C24.3532 24.7131 24.6516 24.4201 25.0904 23.9638C25.4306 23.5453 26.0695 23.5453 26.4096 23.9638ZM20 4.6499C20.3508 4.6499 20.6612 4.86465 20.7889 5.18321L21.415 7.6499L8.79368 7.65653C8.37456 7.70898 8.0503 8.06657 8.0503 8.4999C8.0503 8.93323 8.37456 9.29083 8.79368 9.34328L21.841 9.3499L22.669 12.6499H28.0001C28.4817 12.6499 28.8701 13.0498 28.8495 13.5311C28.7117 16.7499 27.2167 19.2278 26.5118 20.234C25.8069 21.2403 25.7105 21.3299 25.3071 21.7807C24.4885 22.6954 23.5861 23.35 22.4454 23.35C21.4128 23.35 20.3357 22.6766 19.214 21.3299C18.1068 22.6786 17.0245 23.352 15.967 23.35C14.9095 23.348 13.8298 22.6746 12.728 21.3299C11.6552 22.6766 10.5794 23.35 9.50062 23.35C8.4218 23.35 7.33593 22.6769 6.24302 21.3309C5.12133 22.698 4.04033 23.3815 3.00002 23.3815C2.56669 23.3815 2.15002 23.0227 2.15002 22.5315V12.8499L19.6066 12.8433C20.0258 12.7908 20.35 12.4332 20.35 11.9999C20.35 11.5666 20.0258 11.209 19.6066 11.1565L2.15002 11.1499V5.4999C2.15002 5.03046 2.53058 4.6499 3.00002 4.6499H20ZM16.25 15.4999C15.5597 15.4999 15 16.0595 15 16.7499C15 17.4403 15.5597 17.9999 16.25 17.9999C16.9404 17.9999 17.5 17.4403 17.5 16.7499C17.5 16.0595 16.9404 15.4999 16.25 15.4999ZM21.25 15.4999C20.5597 15.4999 20 16.0595 20 16.7499C20 17.4403 20.5597 17.9999 21.25 17.9999C21.9404 17.9999 22.5 17.4403 22.5 16.7499C22.5 16.0595 21.9404 15.4999 21.25 15.4999ZM11.25 15.4999C10.5597 15.4999 10 16.0595 10 16.7499C10 17.4403 10.5597 17.9999 11.25 17.9999C11.9404 17.9999 12.5 17.4403 12.5 16.7499C12.5 16.0595 11.9404 15.4999 11.25 15.4999ZM6.25002 15.4999C5.55967 15.4999 5.00002 16.0595 5.00002 16.7499C5.00002 17.4403 5.55967 17.9999 6.25002 17.9999C6.94038 17.9999 7.50002 17.4403 7.50002 16.7499C7.50002 16.0595 6.94038 15.4999 6.25002 15.4999Z" fill="#1A1C1F"/>
</g>
<defs>
<clipPath id="clip0_2214_7257">
<rect width="32" height="32" fill="white"/>
</clipPath>
</defs>
</svg>

<svg xmlns="http://www.w3.org/2000/svg" width="32" height="32" fill="none"><g clip-path="url(#a)"><path fill="#1A1C1F" fill-rule="evenodd" d="M26.41 23.964q.657.685.895.879c.56.46 1.221.807 1.693.807a.85.85 0 1 1 0 1.7q-1.563 0-3.248-1.613-1.727 1.613-3.248 1.613-1.52 0-3.252-1.614-1.716 1.616-3.254 1.614t-3.246-1.613Q11.046 27.35 9.5 27.35q-1.545 0-3.25-1.614Q4.533 27.35 3 27.35a.85.85 0 0 1 0-1.7c.46 0 1.073-.295 1.696-.807q.237-.194.894-.878a.85.85 0 0 1 1.32 0q.657.683.894.878c.561.46 1.196.807 1.696.807s1.134-.347 1.695-.807q.238-.195.895-.88a.85.85 0 0 1 1.32 0q.658.685.895.88c.56.46 1.191.808 1.693.807s1.074-.296 1.697-.807q.238-.195.895-.88a.85.85 0 0 1 1.242-.083q.735.768.974.963c.558.457 1.2.808 1.696.807s1.07-.296 1.693-.807q.237-.195.895-.88a.85.85 0 0 1 1.32 0M20 4.65a.85.85 0 0 1 .789.533l.626 2.467-12.621.007a.85.85 0 0 0 0 1.686l13.047.007.828 3.3H28c.482 0 .87.4.85.881-.138 3.219-1.633 5.697-2.338 6.703s-.802 1.096-1.205 1.547c-.819.914-1.72 1.569-2.862 1.569q-1.549 0-3.231-2.02-1.661 2.023-3.247 2.02t-3.239-2.02q-1.61 2.02-3.227 2.02-1.62 0-3.258-2.02Q4.56 23.383 3 23.383a.86.86 0 0 1-.85-.85V12.85l17.457-.007a.85.85 0 0 0 0-1.687L2.15 11.15V5.5c0-.47.38-.85.85-.85zM16.25 15.5a1.25 1.25 0 1 0 0 2.5 1.25 1.25 0 0 0 0-2.5m5 0a1.25 1.25 0 1 0 0 2.5 1.25 1.25 0 0 0 0-2.5m-10 0a1.25 1.25 0 1 0 0 2.5 1.25 1.25 0 0 0 0-2.5m-5 0a1.25 1.25 0 1 0 0 2.5 1.25 1.25 0 0 0 0-2.5" clip-rule="evenodd"/></g><defs><clipPath id="a"><path fill="#fff" d="M0 0h32v32H0z"/></clipPath></defs></svg>
